X:102
T:Attic Story. THO5.102, The
M:6/8
L:1/8
B:Thompson's Complete Collection of 200 Favourite Dances Vol.5
F:https://www.libraryofdance.org/manuals/1780c-Thompson-Compleat-5.pdf
Z:vmp. Peter Dunk 2024
Q:3/8=100
K:A
cde efg|agf efd|cde efg|aec A3:|
|:BGE dBE|cAE ecA|BGE dBf|cdB A3:|
W:
W:Right hands across ./.
W:Left hands back again ./:
W:Lead down two Couples :/.
W:up again and cast off :/:
W:hands four round at bottom ./.
W:Hands four round at top ./:
W:Lead outsides :/.  :/:

